src/styles/icons/send.svg

<svg width="24" height="24" fill="none" xmlns="http://www.w3.org/2000/svg"><path d="M3.741 1.40811 22.203 11.5621c.0784.0432.1438.1066.1893.1836.0455.0771.0695.1649.0695.2544 0 .0895-.024.1773-.0695.2544-.0455.077-.1109.1404-.1893.1836L3.741 22.5921c-.07613.0419-.16185.0632-.24873.0619-.08687-.0014-.1719-.0253-.24669-.0696-.0748-.0442-.13678-.1071-.17985-.1826-.04306-.0754-.06572-.1608-.06573-.2477V1.84611c.00001-.08689.02267-.17227.06573-.24773.04307-.07547.10505-.13841.17985-.18262.07479-.04421.15982-.06817.24669-.06951.08688-.00134.1726.01998.24873.06186ZM5 13.0001v6.617l13.85-7.617L5 4.38311v6.61699h5v2H5Z" fill="#000"/></svg>

<svg width="24" height="24" viewBox="0 0 24 24" fill="none" xmlns="http://www.w3.org/2000/svg">
<path d="M3.741 1.40811L22.203 11.5621C22.2814 11.6053 22.3468 11.6687 22.3923 11.7457C22.4378 11.8228 22.4618 11.9106 22.4618 12.0001C22.4618 12.0896 22.4378 12.1774 22.3923 12.2545C22.3468 12.3315 22.2814 12.3949 22.203 12.4381L3.741 22.5921C3.66487 22.634 3.57915 22.6553 3.49227 22.654C3.4054 22.6526 3.32037 22.6287 3.24558 22.5844C3.17078 22.5402 3.1088 22.4773 3.06573 22.4018C3.02267 22.3264 3.00001 22.241 3 22.1541V1.84611C3.00001 1.75922 3.02267 1.67384 3.06573 1.59838C3.1088 1.52291 3.17078 1.45997 3.24558 1.41576C3.32037 1.37155 3.4054 1.34759 3.49227 1.34625C3.57915 1.34491 3.66487 1.36623 3.741 1.40811ZM5 13.0001V19.6171L18.85 12.0001L5 4.38311V11.0001H10V13.0001H5Z" fill="black"/>
</svg>
